X:3
T:Easy Club Reel, The
M:2/2
L:1/8
R:reel
K:A
AEAc BABd|cee^d eAce|fefg afec|dBcA BAGB|AEAc BABd|cee^d eAce|fefg afed|
1
cdBc AdcB :|2cABc Aeag||
|:(f2 f)a dfaf |e2 ae ceae|f2 af dfag|afec BdcB|AEAc BABd|cee^d eAce|fef
g afed |1 cdBc Aeag :|2 "D.C."cdBc A2 cB||
